!!!COM:	Rachmaninoff, Sergei
!!!CDT:	1873/04/01–1943/03/28
!!!OTL@RU:	Slava v vïshnikh Bogu
!!!OTL@EN:	Glory to God in the Highest
!!!OPS:	Op. 37
!!!ONM:	No. 7
**kern	**kern	**kern	**kern	**kern	**kern	**kern	**kern
*part8	*part7	*part6	*part5	*part4	*part3	*part2	*part1
*staff8	*staff7	*staff6	*staff5	*staff4	*staff3	*staff2	*staff1
*I"Bass 2	*I"Bass 1	*I"Tenor 2	*I"Tenor 1	*I"Alto 2	*I"Alto 1	*I"Soprano 2	*I"Soprano 1
*I'B 2	*I'B 1	*I'T 2	*I'T 1	*I'A 2	*I'A 1	*I'S 2	*I'S 1
*clefF4	*clefF4	*clefGv2	*clefGv2	*clefG2	*clefG2	*clefG2	*clefG2
*k[b-e-a-]	*k[b-e-a-]	*k[b-e-a-]	*k[b-e-a-]	*k[b-e-a-]	*k[b-e-a-]	*k[b-e-a-]	*k[b-e-a-]
*E-:	*E-:	*E-:	*E-:	*E-:	*E-:	*E-:	*E-:
=1	=1	=1	=1	=1	=1	=1	=1
2%5r	2%5r	2c	2e-	4e-	4e-	4e-	2%5r
.	.	.	.	4f	4f	4f	.
.	.	2G	2d	4g	4g	4g	.
.	.	.	.	4g	4g	4g	.
.	.	2A-	2c	8gL	8gL	8gL	.
.	.	.	.	8fJ	8fJ	8fJ	.
.	.	.	.	4e-	4e-	4e-	.
.	.	2B-	2d	2f	2f	2f	.
.	.	2c	2e-	8fL	8fL	8fL	.
.	.	.	.	8gJ	8gJ	8gJ	.
.	.	.	.	4a-	4a-	4a-	.
=2	=2	=2	=2	=2	=2	=2	=2
0r	0r	2G	2d	4g	4g	4g	0r
.	.	.	.	4g	4g	4g	.
.	.	2A-	2c	8gL	8gL	8gL	.
.	.	.	.	8fJ	8fJ	8fJ	.
.	.	.	.	4e-	4e-	4e-	.
.	.	2B-	2d	1f	1f	1f	.
.	.	2c	2e-	.	.	.	.
=3	=3	=3	=3	=3	=3	=3	=3
!!pagebreak:original
0r	0r	2B-	2d	4g	4g	4g	0r
.	.	.	.	4g	4g	4g	.
.	.	2A-	2c	4g	4g	4g	.
.	.	.	.	4g	4g	4g	.
.	.	2B-	2d	2g	2g	2g	.
.	.	2c	2e-	8gL	8gL	8gL	.
.	.	.	.	8fJ	8fJ	8fJ	.
.	.	.	.	4e-	4e-	4e-	.
=4	=4	=4	=4	=4	=4	=4	=4
0r	2G	4d	2d	2f	2f	2f	0r
.	.	2r	.	.	.	.	.
.	2A-	.	2c	4f	4f	4f	.
.	.	4r	.	[4f	[4f	[4f	.
.	2D	1r	2B-	4f]	4f]	4f]	.
.	.	.	.	4r	4r	2r	.
.	2C	.	2A-	4e-	4e-	.	.
.	.	.	.	4f	4f	4r	.
=5	=5	=5	=5	=5	=5	=5	=5
!!pagebreak:original
[1EE-	1BB-	0r	1G	4g	4g	1r	1r
.	.	.	.	4g	4g	.	.
.	.	.	.	8gL	8gL	.	.
.	.	.	.	8fJ	8fJ	.	.
.	.	.	.	4e-	4e-	.	.
1EE-_	1r	.	1r	2f	2f	2a- 2cc	2ee-
.	.	.	.	8fL	8fL	2a- 2cc	2ee-
.	.	.	.	8gJ	8gJ	.	.
.	.	.	.	4a-	4a-	.	.
=6	=6	=6	=6	=6	=6	=6	=6
1EE-_	0r	[1c [1e-	1g	4g	4g	0r	0r
.	.	.	.	4g	4g	.	.
.	.	.	.	8gL	8gL	.	.
.	.	.	.	8fJ	8fJ	.	.
.	.	.	.	4e-	4e-	.	.
1EE-]	.	2c] 2e-]	1f	1f	1f	.	.
.	.	2B-	.	.	.	.	.
=7	=7	=7	=7	=7	=7	=7	=7
[1EE-	1%3r	4e-	4e-	4g	4g	2e- 2g	2b-
.	.	4r	4r	4g	4g	.	.
.	.	2r	2r	4g	4g	2e- 2g	2b-
.	.	.	.	4g	4g	.	.
1EE-]	.	1G 1B-	1d	2g	2g	1r	4r
.	.	.	.	.	.	.	4r
.	.	.	.	8gL	8gL	.	4r
.	.	.	.	8fJ	8fJ	.	.
.	.	.	.	4e-	4e-	.	4r
1r	.	2A-	2c	2f	2f	1r	4r
.	.	.	.	.	.	.	4r
.	.	2B-	2d	4f	4f	.	4r
.	.	.	.	4f	4f	.	4r
=8	=8	=8	=8	=8	=8	=8	=8
!!pagebreak:original
2r	2r	2c	4e-	4e-	4e-	4e-	2%5r
.	.	.	4f	4f	4f	4f	.
2BB-	1G	2d	4g	4g	4g	4g	.
.	.	.	4g	4g	4g	4g	.
2C	.	2e-	8gL	8gL	8gL	8gL	.
.	.	.	8fJ	8fJ	8fJ	8fJ	.
.	.	.	4e-	4e-	4e-	4e-	.
2AA-	1F	2c	2f	2f	2f	2f	.
2BB-	.	2d	8fL	8fL	8fL	8fL	.
.	.	.	8gJ	8gJ	8gJ	8gJ	.
.	.	.	4a-	4a-	4a-	4a-	.
=9	=9	=9	=9	=9	=9	=9	=9
2GG	2D	2B-	4g	4g	4g	4g	0r
.	.	.	4g	4g	4g	4g	.
2AA-	2C	2c	8gL	8gL	8gL	8gL	.
.	.	.	8fJ	8fJ	8fJ	8fJ	.
.	.	.	4e-	4e-	4e-	4e-	.
2FF	2C	1A-	1f	1f	1f	1f	.
2BB-	2BB-	.	.	.	.	.	.
=10	=10	=10	=10	=10	=10	=10	=10
!!pagebreak:original
[1EE-	2BB-	2G	2r	4g	4g	1r	1r
.	.	.	.	4g	4g	.	.
.	1r	1.c 1.e-	1.g	4g	4g	.	.
.	.	.	.	4g	4g	.	.
1EE-]	.	.	.	2g	2g	2r	2r
.	2r	.	.	8gL	8gL	[2a-	[2cc [2ee-
.	.	.	.	8fJ	8fJ	.	.
.	.	.	.	4e-	4e-	.	.
=11	=11	=11	=11	=11	=11	=11	=11
1EE-	4BB- 4F	2c 2e-	2f	1f	1f	8a-L]	8ccL] 8ee-]
.	.	.	.	.	.	8b-J	8b-J 8dd
.	4C 4A-	.	.	.	.	8ccL	8a-L 8cc
.	.	.	.	.	.	8b-J	8b-J 8dd
.	4BB- 4F	1c 1e-	1f	.	.	[2a-	[2cc [2ee-
.	4C 4A-	.	.	.	.	.	.
1EE-	4BB- 4F	.	.	1B-	1f	8a-L]	8ccL] 8ee-]
.	.	.	.	.	.	8b-J	8b-J 8dd
.	4C 4A-	.	.	.	.	8ccL	8a-L 8cc
.	.	.	.	.	.	8b-J	8b-J 8dd
.	4BB- 4F	[2c [2e-	[2f	.	.	[2a-	[2cc [2ee-
.	4C 4A-	.	.	.	.	.	.
=12	=12	=12	=12	=12	=12	=12	=12
!!pagebreak:original
1EE-	4BB- 4F	2c] 2e-]	2f]	1B-	1f	8a-L]	8ccL] 8ee-]
.	.	.	.	.	.	8b-	8b- 8dd
.	4C 4A-	.	.	.	.	8cc	8a- 8cc
.	.	.	.	.	.	8b-J	8b-J 8dd
.	4BB- 4F	1c 1e-	1f	.	.	8a-L	8ccL 8ee-
.	.	.	.	.	.	8b-	8b- 8dd
.	4C 4A-	.	.	.	.	8cc	8a- 8cc
.	.	.	.	.	.	8b-J	8b-J 8dd
[1EE-	4BB- 4F	.	.	1B-	1f	8a-L	8ccL 8ee-
.	.	.	.	.	.	8b-	8b- 8dd
.	4C 4A-	.	.	.	.	8cc	8a- 8cc
.	.	.	.	.	.	8b-J	8b-J 8dd
.	4BB- 4F	[2c [2e-	[2f	.	.	8a-L	8ccL 8ee-
.	.	.	.	.	.	8b-	8b- 8dd
.	4C 4A-	.	.	.	.	8cc	8a- 8cc
.	.	.	.	.	.	8b-J	8b-J 8dd
=13	=13	=13	=13	=13	=13	=13	=13
1EE-_	2BB- 2F	1c_ 1e-_	1f_	[1B-	2f	[1a-	[1cc [1ee-
.	[2C [2A-	.	.	.	[2a-	.	.
2EE-;]	2C;] 2A-]	2c;] 2e-]	2f;]	2B-;]	2a-;]	2a-;]	2cc;] 2ee-]
2r;	2r;	2r;	2r;	2r;	2r;	2r;	2r;
=14	=14	=14	=14	=14	=14	=14	=14
!!pagebreak:original
2E-	2E-	2B-	2B-	2e-	2e-	2g	2g
2BB-	2BB-	2B-	2B-	2d	2d	2f	2f
2E-	2E-	2B-	2B-	2e-	2e-	2g	2g
4r	4r	4r	4r	4r	4r	4r	4r
4AA-	4E-	4c	4c	4e-	4e-	4a-	4a-
=15	=15	=15	=15	=15	=15	=15	=15
[1GG	[1E-	[1d-X	[1d-X	[1e-	[1e-	[1b-	[1b-
4GG]	4E-]	4d-]	4d-]	4e-]	4e-]	4b-]	4b-]
4AA-	4E-	4c	4c	4e-	4e-	4a-	4a-
4BB-	4E-	4B-	4B-	4e-	4e-	4g	4g
8CL	4E-	8A-L	8A-L	4e-	4e-	8fL	8fL
8BB-J	.	8B-J	8B-J	.	.	8gJ	8gJ
=16	=16	=16	=16	=16	=16	=16	=16
2.E-	2.E-	2.c	2.c	2.e-	2.e-	2.a-	2.a-
4E-	4E-	4B-	4B-	4e-	4e-	4g	4g
1E-	1E-	1B-	1B-	1e-	1e-	1g	1g
=17	=17	=17	=17	=17	=17	=17	=17
2r	2r	2r	2r	2r	2r	2r	2r
4E-	4E-	4B-	4B-	4e-	4e-	4g	4g
4F	4F	4B-	4B-	4e-	4e-	4a-	4a-
=18	=18	=18	=18	=18	=18	=18	=18
!!pagebreak:original
2.G	2.G	2.B-	2.B-	2.e-	2.e-	2.b-	2.b-
4A-	4A-	4B-	4B-	4e-	4e-	4a-	4a-
2G	2G	2B-	2B-	2e-	2e-	2b-	2b-
2F	2F	2A-	2A-	2d	2d	2bn	2bn
=19	=19	=19	=19	=19	=19	=19	=19
2.C	2.C	2.G	2.G	2.e-	2.e-	2.cc	2.cc
4F	4F	4A-	4A-	4d	4d	4b-	4b-
2C	2C	2G	2G	2e-	2e-	2cc	2cc
2E-	2E-	2d	2d	2d	2g	2g	2g
=20	=20	=20	=20	=20	=20	=20	=20
[1GG	[1E-	[1d-X	[1d-X	[1d-X	[1b-	[1b-	[1b-
2GG]	2E-]	2d-]	2d-]	2d-]	2b-]	2b-]	2b-]
2AA-	4E-	2c	2c	2c	2a-	2a-	2a-
.	4D	.	.	.	.	.	.
=21	=21	=21	=21	=21	=21	=21	=21
1EE-;	1E-;	1B-;	1B-;	1e-;	1g;	1g;	1g;
==	==	==	==	==	==	==	==
*-	*-	*-	*-	*-	*-	*-	*-
